X:79
T:Reel des vieux gar\,cons
S:Carmen G\'erard
Z:robin.beech@mcgill.ca
M:4/4
L:1/8
K:D
dDDd dDDd | c2B2 E3F | G2E2 c2Bc | B2A2 F4 |
dDDd dDDd | c2B2 E3F | G2E2 c2Bc |1 e2d2 d4 :|2 e2d2 d2FG |:
A2F2 d2FG | A2G2 E3F | G2E2 c2Bc | B2A2 F3G |
A2F2 d2FG | A2G2 E3F | G2E2 c2Bc |1 e2d2 d2FG :|2 e2d2 d4 |]

